X:238
T:Hell on the Wabash
Z:Jack Campin, http://www.campin.me.uk/
F:Jack Campin's Nine-Note Tunebook
% last edit 03-02-2013
B:Ryan's Mammoth Collection
M:C|
L:1/8
Q:1/2=108
K:DMin
{^c}d|z2{^c}d2 (D3.E)|FGAF D3 {^c}d  |z2{^c}d2   (C3.D)|EFGE     C3
{^c}d|z2{^c}d2 (D3.E)|FGAF D2 ((3EDC)|DF ((3AB^c) dABG |FDE^C [1 D3 :|\
                                                              [2 D2 ||
   DE|FAzA      zAFD |FAzA zAFD      |EGzG        zGEC |EGzG     zGEC|
      FAzA      zAFD |FAzA zAFD      |DF ((3AB^c) dABG |FDE^C [1 D2 :|\
                                                              [2 D3 |]

